format-color-fill.svg

<svg fill="currentColor" viewBox="0 0 24 24"><path d="M19 11.5s-2 2.17-2 3.5a2 2 0 0 0 2 2 2 2 0 0 0 2-2c0-1.33-2-3.5-2-3.5M5.21 10 10 5.21 14.79 10m1.77-1.06L7.62 0 6.21 1.41l2.38 2.38-5.15 5.15c-.59.56-.59 1.53 0 2.12l5.5 5.5c.29.29.68.44 1.06.44s.77-.15 1.06-.44l5.5-5.5c.59-.59.59-1.56 0-2.12"/></svg>

<svg  viewBox="0 0 24 24" fill="currentColor"><path  d="M19,11.5C19,11.5 17,13.67 17,15A2,2 0 0,0 19,17A2,2 0 0,0 21,15C21,13.67 19,11.5 19,11.5M5.21,10L10,5.21L14.79,10M16.56,8.94L7.62,0L6.21,1.41L8.59,3.79L3.44,8.94C2.85,9.5 2.85,10.47 3.44,11.06L8.94,16.56C9.23,16.85 9.62,17 10,17C10.38,17 10.77,16.85 11.06,16.56L16.56,11.06C17.15,10.47 17.15,9.5 16.56,8.94Z"/></svg>
